svg/free/sun.svg

<svg version="1.1" xmlns="http://www.w3.org/2000/svg" width="24" height="24" viewBox="0 0 24 24">
<title>sun</title>
<path d="M12 4.875c-3.929 0-7.125 3.196-7.125 7.125s3.196 7.125 7.125 7.125 7.125-3.196 7.125-7.125-3.196-7.125-7.125-7.125zM12 17.625c-3.107 0-5.625-2.518-5.625-5.625s2.518-5.625 5.625-5.625c3.107 0 5.625 2.518 5.625 5.625v0c-0.004 3.105-2.52 5.621-5.625 5.625h-0z"></path>
<path d="M11.25 0.75h1.5v2.25h-1.5v-2.25z"></path>
<path d="M11.25 21h1.5v2.25h-1.5v-2.25z"></path>
<path d="M21 11.25h2.25v1.5h-2.25v-1.5z"></path>
<path d="M0.75 11.25h2.25v1.5h-2.25v-1.5z"></path>
<path d="M18.22 19.28l1.061-1.061 1.5 1.5-1.061 1.061-1.5-1.5z"></path>
<path d="M3.22 4.28l1.061-1.061 1.5 1.5-1.061 1.061-1.5-1.5z"></path>
<path d="M3.22 19.72l1.5-1.5 1.061 1.061-1.5 1.5-1.061-1.061z"></path>
<path d="M18.22 4.72l1.5-1.5 1.061 1.061-1.5 1.5-1.061-1.061z"></path>
</svg>

<svg xmlns="http://www.w3.org/2000/svg" width="24" height="24" viewBox="0 0 24 24"><path d="M12 4.875c-3.929 0-7.125 3.196-7.125 7.125S8.071 19.125 12 19.125s7.125-3.196 7.125-7.125S15.929 4.875 12 4.875zm0 12.75a5.624 5.624 0 110-11.25A5.624 5.624 0 0117.625 12 5.632 5.632 0 0112 17.625zM11.25.75h1.5V3h-1.5V.75zM11.25 21h1.5v2.25h-1.5V21zM21 11.25h2.25v1.5H21v-1.5zM.75 11.25H3v1.5H.75v-1.5zM18.22 19.28l1.061-1.061 1.5 1.5-1.061 1.061-1.5-1.5zM3.22 4.28l1.061-1.061 1.5 1.5L4.72 5.78l-1.5-1.5zM3.22 19.72l1.5-1.5 1.061 1.061-1.5 1.5L3.22 19.72zM18.22 4.72l1.5-1.5 1.061 1.061-1.5 1.5L18.22 4.72z"/></svg>
